app/component-library/components/Icons/Icon/assets/trend-down.svg

<svg width="24" height="24" viewBox="0 0 24 24" fill="none" xmlns="http://www.w3.org/2000/svg">
<path d="M16.4713 2H8.09125C4.45125 2 2.28125 4.17 2.28125 7.81V16.18C2.28125 19.83 4.45125 22 8.09125 22H16.4613C20.1013 22 22.2712 19.83 22.2712 16.19V7.81C22.2812 4.17 20.1113 2 16.4713 2ZM17.1612 14.33C17.1612 14.42 17.1412 14.51 17.1112 14.6C17.0412 14.77 16.9013 14.91 16.7313 14.98C16.6413 15.02 16.5513 15.03 16.4613 15.03H14.6012C14.2112 15.03 13.9012 14.72 13.9012 14.33C13.9012 13.94 14.2112 13.63 14.6012 13.63H14.7812L12.6713 11.52L11.6512 13.04C11.5312 13.21 11.3512 13.33 11.1412 13.35C10.9312 13.37 10.7313 13.3 10.5813 13.15L7.60125 10.17C7.33125 9.9 7.33125 9.46 7.60125 9.18C7.87125 8.9 8.31125 8.91 8.59125 9.18L10.9712 11.56L11.9913 10.04C12.1113 9.87 12.2913 9.75 12.5013 9.73C12.7213 9.71 12.9112 9.78 13.0612 9.93L15.7812 12.65V12.47C15.7812 12.08 16.0913 11.77 16.4813 11.77C16.8713 11.77 17.1812 12.08 17.1812 12.47V14.33H17.1612Z" fill="currentColor"/>
</svg>

<svg xmlns="http://www.w3.org/2000/svg" width="24" height="24" viewBox="0 0 24 24" fill="none"><path fill="currentColor" d="M16.471 2h-8.38c-3.64 0-5.81 2.17-5.81 5.81v8.37c0 3.65 2.17 5.82 5.81 5.82h8.37c3.64 0 5.81-2.17 5.81-5.81V7.81c.01-3.64-2.16-5.81-5.8-5.81Zm.69 12.33c0 .09-.02.18-.05.27-.07.17-.21.31-.38.38-.09.04-.18.05-.27.05h-1.86c-.39 0-.7-.31-.7-.7 0-.39.31-.7.7-.7h.18l-2.11-2.11-1.02 1.52c-.12.17-.3.29-.51.31a.687.687 0 0 1-.56-.2l-2.98-2.98a.706.706 0 0 1 0-.99c.27-.28.71-.27.99 0l2.38 2.38 1.02-1.52c.12-.17.3-.29.51-.31.22-.02.41.05.56.2l2.72 2.72v-.18c0-.39.31-.7.7-.7.39 0 .7.31.7.7v1.86h-.02Z"/></svg>
